!!!COM: Music21
!!!OTL: Aire de Muiñeira
!!!OMV: pezas_muineiras_aire-de-muineira_aire-de-muineira-partitura.musicxml
**kern
*I"Bagpipes
*I'Bag
*clefG^2
*k[]
*M6/8
=1
!LO:TX:a:t=Allegro
*MM180
!LO:TX:a:t=[quarter]=180
8ggL
8ee
8ffJ
8ggL
8ee
8ffJ
=
4gg
8ee
8eeL
8dd
8eeJ
=
4ff
8dd
8ddL
8cc
8ddJ
=
4ee
[8cc
8ccL]
8ee
8ffJ
=
8ggL
8ee
8ffJ
8ggL
8ee
8ffJ
=
4gg
8ee
8eeL
8dd
8eeJ
=
4ff
[8dd
8ddL]
8ee
8ddJ
=
2.cc
!!linebreak:original
=||
*M6/8
!LO:TX:a:t=Allegro
*MM180
!LO:TX:a:t=[quarter]=180
8ggL
8ee
8ffJ
8ggL
8ee
8ffJ
=
4gg
8ee
8eeL
8dd
8eeJ
=
4ff
8dd
8ddL
8cc
8ddJ
=
4ee
[8cc
8ccL]
8ee
8ffJ
=
8ggL
8ee
8ffJ
8ggL
8ee
8ffJ
=
4gg
8ee
8eeL
8dd
8eeJ
=
4ff
[8dd
8ddL]
8ee
8ddJ
!!linebreak:original
=
2cc
8ccL
8eeJ
=||
4gg
8ee
4ff
8dd
=
2ee
8ccL
8eeJ
=
4gg
8ee
4ff
8dd
=
2ee
8ccL
8eeJ
=
4gg
8ee
4ff
8dd
=
8eeL
8dd
[8ccJ
8ccL]
8ee
8ccJ
=
8ddL
8cc
8bJ
8ddL
8cc
8bJ
=
2cc
8ccL
8eeJ
!!linebreak:original
=||
4gg
8ee
4ff
8dd
=
2ee
8ccL
8eeJ
=
4gg
8ee
4ff
8dd
=
2ee
8ccL
8eeJ
=
4gg
8ee
4ff
8dd
=
8eeL
8dd
[8ccJ
8ccL]
8ee
8ccJ
=
8ddL
8cc
8bJ
8ddL
8cc
8bJ
!!linebreak:original
=
2cc
8cccL
8bbJ
=||
8ggL
8ccc
8bbJ
8ggL
8ccc
8bbJ
=
4gg
8ee
8eeL
8dd
8eeJ
=
4ff
8dd
8ddL
8cc
8ddJ
=
4ee
4cc
8cccL
8bbJ
=
8ggL
8ccc
8bbJ
8ggL
8ccc
8bbJ
=
4gg
8ee
8eeL
8dd
8eeJ
=
4ff
8dd
8ddL
8ee
8ddJ
!!linebreak:original
=
2cc
8cccL
8bbJ
=||
8ggL
8ccc
8bbJ
8ggL
8ccc
8bbJ
=
4gg
8ee
8eeL
8dd
8eeJ
=
4ff
8dd
8ddL
8cc
8ddJ
=
4ee
4cc
8cccL
8bbJ
=
8ggL
8ccc
8bbJ
8ggL
8ccc
8bbJ
=
4gg
8ee
8eeL
8dd
8eeJ
=
4ff
8dd
8ddL
8ee
8ddJ
!!linebreak:original
=
8cc
4r
4.r
==
*-
